;Generated with Cura_SteamEngine 14.09
; Default start code
G28 ; Home extruder
G1 Z15 F10000
M107 ; Turn off fan
G90 ; Absolute positioning
M82 ; Extruder in absolute mode
M190 S45
; Activate all used extruder
M104 T0 S220
G92 E0 ; Reset extruder position
; Wait for all used extruders to reach temperature
M109 T0 S220
;Layer count: 107
;LAYER:0
M107
G0 F9000 X-1.500 Y-45.200 Z0.300
;TYPE:SKIRT
G1 F900 X3.499 Y-45.200 E0.24940
G1 X3.499 Y-49.200 E0.44896
G1 X28.606 Y-49.200 E1.70156
G1 X29.313 Y-49.153 E1.73691
G1 X30.107 Y-48.994 E1.77730
G1 X30.874 Y-48.734 E1.81771
G1 X31.601 Y-48.376 E1.85814
G1 X32.278 Y-47.925 E1.89872
G1 X32.889 Y-47.389 E1.93927
G1 X33.423 Y-46.779 E1.97972
G1 X33.876 Y-46.102 E2.02036
G1 X34.235 Y-45.372 E2.06094
G1 X34.494 Y-44.607 E2.10124
G1 X34.674 Y-43.708 E2.14698
G1 X34.700 Y42.662 E6.45600
G1 X34.665 Y43.752 E6.51041
G1 X34.495 Y44.606 E6.55385
G1 X34.235 Y45.372 E6.59420
G1 X33.876 Y46.102 E6.63479
G1 X33.423 Y46.779 E6.67543
G1 X32.889 Y47.389 E6.71588
G1 X32.278 Y47.925 E6.75643
G1 X31.601 Y48.376 E6.79701
G1 X30.874 Y48.734 E6.83744
G1 X30.107 Y48.994 E6.87784
G1 X29.258 Y49.164 E6.92104
G1 X28.119 Y49.200 E6.97790
G1 X-28.132 Y49.200 E9.78427
G1 X-29.250 Y49.165 E9.84007
G1 X-30.106 Y48.995 E9.88361
G1 X-30.872 Y48.735 E9.92397
G1 X-31.602 Y48.376 E9.96456
G1 X-32.279 Y47.923 E10.00520
G1 X-32.889 Y47.389 E10.04564
G1 X-33.423 Y46.779 E10.08609
G1 X-33.876 Y46.102 E10.12673
G1 X-34.235 Y45.372 E10.16731
G1 X-34.494 Y44.607 E10.20761
G1 X-34.664 Y43.759 E10.25076
G1 X-34.700 Y42.634 E10.30691
G1 X-34.700 Y-42.839 E14.57118
G1 X-34.671 Y-43.549 E14.60663
G1 X-34.653 Y-43.813 E14.61983
G1 X-34.494 Y-44.607 E14.66023
G1 X-34.235 Y-45.372 E14.70052
G1 X-33.876 Y-46.102 E14.74111
G1 X-33.423 Y-46.779 E14.78175
G1 X-32.889 Y-47.389 E14.82220
G1 X-32.279 Y-47.923 E14.86264
G1 X-31.602 Y-48.376 E14.90328
G1 X-30.872 Y-48.735 E14.94387
G1 X-30.107 Y-48.994 E14.98416
G1 X-29.210 Y-49.174 E15.02981
G1 X-5.568 Y-49.200 E16.20931
G1 X-1.500 Y-49.200 E16.41226
G1 X-1.500 Y-45.200 E16.61182
G1 F2400 E12.61182
G0 F9000 X-5.300 Y-45.399
;TYPE:WALL-INNER
G1 F2400 E16.61182
G1 F900 X-5.300 Y-41.400 E16.81134
G1 X7.299 Y-41.400 E17.43990
G1 X7.299 Y-45.400 E17.63946
G1 X28.475 Y-45.400 E18.69594
G1 X28.817 Y-45.377 E18.71304
G1 X29.121 Y-45.316 E18.72851
G1 X29.417 Y-45.216 E18.74410
G1 X29.698 Y-45.078 E18.75971
G1 X29.958 Y-44.904 E18.77532
G1 X30.196 Y-44.696 E18.79109
G1 X30.402 Y-44.461 E18.80668
G1 X30.580 Y-44.195 E18.82265
G1 X30.716 Y-43.918 E18.83805
G1 X30.816 Y-43.621 E18.85368
G1 X30.874 Y-43.333 E18.86834
G1 X30.900 Y42.592 E23.15515
G1 X30.876 Y43.321 E23.19154
G1 X30.817 Y43.620 E23.20675
G1 X30.716 Y43.918 E23.22245
G1 X30.580 Y44.195 E23.23784
G1 X30.402 Y44.461 E23.25381
G1 X30.196 Y44.696 E23.26940
G1 X29.958 Y44.904 E23.28517
G1 X29.698 Y45.078 E23.30078
G1 X29.417 Y45.216 E23.31640
G1 X29.121 Y45.316 E23.33198
G1 X28.826 Y45.375 E23.34699
G1 X28.049 Y45.400 E23.38578
G1 X-28.063 Y45.400 E26.18522
G1 X-28.821 Y45.376 E26.22305
G1 X-29.120 Y45.317 E26.23826
G1 X-29.418 Y45.216 E26.25396
G1 X-29.695 Y45.080 E26.26935
G1 X-29.961 Y44.902 E26.28532
G1 X-30.196 Y44.696 E26.30091
G1 X-30.402 Y44.461 E26.31650
G1 X-30.580 Y44.195 E26.33247
G1 X-30.716 Y43.918 E26.34786
G1 X-30.816 Y43.621 E26.36350
G1 X-30.875 Y43.326 E26.37851
G1 X-30.900 Y42.564 E26.41654
G1 X-30.900 Y-42.773 E30.67402
G1 X-30.877 Y-43.316 E30.70114
G1 X-30.816 Y-43.621 E30.71666
G1 X-30.716 Y-43.918 E30.73229
G1 X-30.580 Y-44.195 E30.74769
G1 X-30.402 Y-44.461 E30.76366
G1 X-30.196 Y-44.696 E30.77925
G1 X-29.961 Y-44.902 E30.79484
G1 X-29.695 Y-45.080 E30.81081
G1 X-29.418 Y-45.216 E30.82620
G1 X-29.121 Y-45.316 E30.84184
G1 X-28.833 Y-45.374 E30.85649
G1 X-5.300 Y-45.399 E32.03056
G0 F9000 X-20.466 Y-41.143
G1 F900 X-20.585 Y-41.561 E32.05224
G1 X-20.761 Y-41.956 E32.07382
G1 X-20.990 Y-42.323 E32.09540
G1 X-21.268 Y-42.653 E32.11693
G1 X-21.590 Y-42.944 E32.13858
G1 X-21.950 Y-43.186 E32.16022
G1 X-22.338 Y-43.375 E32.18175
G1 X-22.749 Y-43.508 E32.20330
G1 X-23.175 Y-43.584 E32.22489
G1 X-23.608 Y-43.599 E32.24651
G1 X-24.039 Y-43.554 E32.26813
G1 X-24.459 Y-43.449 E32.28973
G1 X-24.859 Y-43.286 E32.31128
G1 X-25.233 Y-43.071 E32.33280
G1 X-25.574 Y-42.804 E32.35440
G1 X-25.875 Y-42.493 E32.37600
G1 X-26.130 Y-42.142 E32.39764
G1 X-26.332 Y-41.761 E32.41916
G1 X-26.481 Y-41.355 E32.44073
G1 X-26.571 Y-40.931 E32.46236
G1 X-26.602 Y-40.500 E32.48392
G1 X-26.571 Y-40.068 E32.50552
G1 X-26.481 Y-39.644 E32.52715
G1 X-26.332 Y-39.238 E32.54873
G1 X-26.130 Y-38.857 E32.57024
G1 X-25.875 Y-38.506 E32.59188
G1 X-25.574 Y-38.195 E32.61348
G1 X-25.233 Y-37.928 E32.63508
G1 X-24.859 Y-37.713 E32.65661
G1 X-24.459 Y-37.550 E32.67816
G1 X-24.039 Y-37.445 E32.69976
G1 X-23.608 Y-37.400 E32.72137
G1 X-23.175 Y-37.415 E32.74299
G1 X-22.749 Y-37.491 E32.76458
G1 X-22.338 Y-37.624 E32.78613
G1 X-21.950 Y-37.813 E32.80766
G1 X-21.590 Y-38.055 E32.82930
G1 X-21.268 Y-38.346 E32.85096
G1 X-20.990 Y-38.676 E32.87248
G1 X-20.761 Y-39.043 E32.89407
G1 X-20.585 Y-39.438 E32.91564
G1 X-20.466 Y-39.856 E32.93732
G1 X-20.406 Y-40.283 E32.95884
G1 X-20.406 Y-40.716 E32.98044
G1 X-20.466 Y-41.143 E33.00195
G0 F9000 X22.428 Y-40.930
G1 F900 X22.399 Y-40.500 E33.02345
G1 X22.428 Y-40.069 E33.04500
G1 X22.518 Y-39.644 E33.06668
G1 X22.667 Y-39.238 E33.08825
G1 X22.869 Y-38.857 E33.10977
G1 X23.124 Y-38.506 E33.13141
G1 X23.425 Y-38.195 E33.15300
G1 X23.766 Y-37.928 E33.17461
G1 X24.140 Y-37.713 E33.19613
G1 X24.540 Y-37.550 E33.21768
G1 X24.960 Y-37.445 E33.23928
G1 X25.391 Y-37.400 E33.26090
G1 X25.824 Y-37.415 E33.28252
G1 X26.250 Y-37.491 E33.30411
G1 X26.661 Y-37.624 E33.32566
G1 X27.050 Y-37.813 E33.34723
G1 X27.410 Y-38.055 E33.36888
G1 X27.731 Y-38.346 E33.39049
G1 X28.009 Y-38.676 E33.41202
G1 X28.238 Y-39.043 E33.43360
G1 X28.414 Y-39.438 E33.45518
G1 X28.533 Y-39.856 E33.47686
G1 X28.593 Y-40.283 E33.49837
G1 X28.593 Y-40.716 E33.51997
G1 X28.533 Y-41.143 E33.54149
G1 X28.414 Y-41.561 E33.56317
G1 X28.238 Y-41.956 E33.58474
G1 X28.009 Y-42.323 E33.60632
G1 X27.731 Y-42.653 E33.62785
G1 X27.410 Y-42.944 E33.64947
G1 X27.050 Y-43.186 E33.67111
G1 X26.661 Y-43.375 E33.69269
G1 X26.250 Y-43.508 E33.71424
G1 X25.824 Y-43.584 E33.73583
G1 X25.391 Y-43.599 E33.75744
G1 X24.960 Y-43.554 E33.77906
G1 X24.540 Y-43.449 E33.80066
G1 X24.140 Y-43.286 E33.82221
G1 X23.766 Y-43.071 E33.84373
G1 X23.425 Y-42.804 E33.86534
G1 X23.124 Y-42.493 E33.88693
G1 X22.869 Y-42.142 E33.90858
G1 X22.667 Y-41.761 E33.93009
G1 X22.518 Y-41.355 E33.95167
G1 X22.428 Y-40.930 E33.97334
G0 F9000 X24.960 Y14.445
G1 F900 X24.540 Y14.550 E33.99494
G1 X24.140 Y14.713 E34.01649
G1 X23.766 Y14.928 E34.03801
G1 X23.425 Y15.195 E34.05962
G1 X23.124 Y15.506 E34.08121
G1 X22.869 Y15.857 E34.10286
G1 X22.667 Y16.238 E34.12437
G1 X22.518 Y16.644 E34.14595
G1 X22.428 Y17.069 E34.16762
G1 X22.399 Y17.500 E34.18917
G1 X22.428 Y17.930 E34.21067
G1 X22.518 Y18.355 E34.23235
G1 X22.667 Y18.761 E34.25392
G1 X22.869 Y19.142 E34.27544
G1 X23.124 Y19.493 E34.29708
G1 X23.425 Y19.804 E34.31868
G1 X23.766 Y20.071 E34.34028
G1 X24.140 Y20.286 E34.36180
G1 X24.540 Y20.449 E34.38335
G1 X24.960 Y20.554 E34.40495
G1 X25.391 Y20.599 E34.42657
G1 X25.824 Y20.584 E34.44819
G1 X26.250 Y20.508 E34.46978
G1 X26.661 Y20.375 E34.49133
G1 X27.050 Y20.186 E34.51290
G1 X27.410 Y19.944 E34.53455
G1 X27.731 Y19.653 E34.55616
G1 X28.009 Y19.323 E34.57769
G1 X28.238 Y18.956 E34.59927
G1 X28.414 Y18.561 E34.62085
G1 X28.533 Y18.143 E34.64253
G1 X28.593 Y17.716 E34.66404
G1 X28.593 Y17.283 E34.68564
G1 X28.533 Y16.856 E34.70716
G1 X28.414 Y16.438 E34.72884
G1 X28.238 Y16.043 E34.75041
G1 X28.009 Y15.676 E34.77199
G1 X27.731 Y15.346 E34.79352
G1 X27.410 Y15.055 E34.81514
G1 X27.050 Y14.813 E34.83678
G1 X26.661 Y14.624 E34.85836
G1 X26.250 Y14.491 E34.87991
G1 X25.824 Y14.415 E34.90150
G1 X25.391 Y14.400 E34.92311
G1 X24.960 Y14.445 E34.94473
G0 F9000 X-20.406 Y17.716
G1 F900 X-20.406 Y17.283 E34.96633
G1 X-20.466 Y16.856 E34.98785
G1 X-20.585 Y16.438 E35.00953
G1 X-20.761 Y16.043 E35.03110
G1 X-20.990 Y15.676 E35.05268
G1 X-21.268 Y15.346 E35.07421
G1 X-21.590 Y15.055 E35.09586
G1 X-21.950 Y14.813 E35.11751
G1 X-22.338 Y14.624 E35.13904
G1 X-22.749 Y14.491 E35.16059
G1 X-23.175 Y14.415 E35.18218
G1 X-23.608 Y14.400 E35.20379
G1 X-24.039 Y14.445 E35.22541
G1 X-24.459 Y14.550 E35.24701
G1 X-24.859 Y14.713 E35.26856
G1 X-25.233 Y14.928 E35.29008
G1 X-25.574 Y15.195 E35.31169
G1 X-25.875 Y15.506 E35.33328
G1 X-26.130 Y15.857 E35.35493
G1 X-26.332 Y16.238 E35.37644
G1 X-26.481 Y16.644 E35.39802
G1 X-26.571 Y17.068 E35.41964
G1 X-26.602 Y17.500 E35.44125
G1 X-26.571 Y17.931 E35.46281
G1 X-26.481 Y18.355 E35.48443
G1 X-26.332 Y18.761 E35.50601
G1 X-26.130 Y19.142 E35.52753
G1 X-25.875 Y19.493 E35.54917
G1 X-25.574 Y19.804 E35.57076
G1 X-25.233 Y20.071 E35.59237
G1 X-24.859 Y20.286 E35.61389
G1 X-24.459 Y20.449 E35.63544
G1 X-24.039 Y20.554 E35.65704
G1 X-23.608 Y20.599 E35.67866
G1 X-23.175 Y20.584 E35.70028
G1 X-22.749 Y20.508 E35.72186
G1 X-22.338 Y20.375 E35.74342
G1 X-21.950 Y20.186 E35.76495
G1 X-21.590 Y19.944 E35.78659
G1 X-21.268 Y19.653 E35.80824
G1 X-20.990 Y19.323 E35.82977
G1 X-20.761 Y18.956 E35.85135
G1 X-20.585 Y18.561 E35.87293
G1 X-20.466 Y18.143 E35.89461
G1 X-20.406 Y17.716 E35.91612
G0 F9000 X-20.962 Y18.424
;TYPE:WALL-OUTER
G1 F900 X-20.858 Y18.060 E35.93501
G1 X-20.806 Y17.688 E35.95375
G1 X-20.806 Y17.311 E35.97256
G1 X-20.858 Y16.939 E35.99130
G1 X-20.962 Y16.575 E36.01018
G1 X-21.115 Y16.232 E36.02892
G1 X-21.315 Y15.912 E36.04775
G1 X-21.557 Y15.624 E36.06651
G1 X-21.837 Y15.371 E36.08534
G1 X-22.150 Y15.160 E36.10417
G1 X-22.488 Y14.996 E36.12292
G1 X-22.846 Y14.880 E36.14169
G1 X-23.217 Y14.814 E36.16049
G1 X-23.594 Y14.801 E36.17931
G1 X-23.969 Y14.840 E36.19812
G1 X-24.334 Y14.931 E36.21689
G1 X-24.683 Y15.073 E36.23569
G1 X-25.009 Y15.261 E36.25446
G1 X-25.306 Y15.493 E36.27326
G1 X-25.568 Y15.764 E36.29207
G1 X-25.790 Y16.069 E36.31089
G1 X-25.966 Y16.401 E36.32964
G1 X-26.096 Y16.755 E36.34845
G1 X-26.174 Y17.124 E36.36727
G1 X-26.201 Y17.500 E36.38607
G1 X-26.174 Y17.875 E36.40483
G1 X-26.096 Y18.244 E36.42365
G1 X-25.966 Y18.598 E36.44246
G1 X-25.790 Y18.930 E36.46121
G1 X-25.568 Y19.235 E36.48003
G1 X-25.306 Y19.506 E36.49884
G1 X-25.009 Y19.738 E36.51764
G1 X-24.683 Y19.926 E36.53641
G1 X-24.334 Y20.068 E36.55521
G1 X-23.969 Y20.159 E36.57398
G1 X-23.594 Y20.198 E36.59279
G1 X-23.217 Y20.185 E36.61161
G1 X-22.846 Y20.119 E36.63041
G1 X-22.488 Y20.003 E36.64918
G1 X-22.150 Y19.839 E36.66792
G1 X-21.837 Y19.628 E36.68676
G1 X-21.557 Y19.375 E36.70558
G1 X-21.315 Y19.087 E36.72435
G1 X-21.115 Y18.767 E36.74318
G1 X-20.962 Y18.424 E36.76192
G0 F9000 X-20.689 Y18.546
G0 X-31.000 Y42.573
G0 X-31.300 Y42.583
G1 F900 X-31.300 Y-42.765 E41.01994
G1 X-31.275 Y-43.363 E41.04981
G1 X-31.203 Y-43.726 E41.06827
G1 X-31.086 Y-44.072 E41.08649
G1 X-30.926 Y-44.399 E41.10465
G1 X-30.722 Y-44.703 E41.12292
G1 X-30.479 Y-44.979 E41.14126
G1 X-30.203 Y-45.222 E41.15961
G1 X-29.899 Y-45.426 E41.17788
G1 X-29.572 Y-45.586 E41.19604
G1 X-29.226 Y-45.703 E41.21426
G1 X-28.872 Y-45.774 E41.23227
G1 X-4.900 Y-45.800 E42.42824
G1 X-4.900 Y-41.800 E42.62780
G1 X6.899 Y-41.800 E43.21646
G1 X6.899 Y-45.800 E43.41602
G1 X28.487 Y-45.800 E44.49305
G1 X28.869 Y-45.775 E44.51215
G1 X29.226 Y-45.703 E44.53032
G1 X29.572 Y-45.586 E44.54854
G1 X29.898 Y-45.426 E44.56665
G1 X30.203 Y-45.222 E44.58496
G1 X30.479 Y-44.979 E44.60331
G1 X30.722 Y-44.703 E44.62165
G1 X30.926 Y-44.399 E44.63992
G1 X31.086 Y-44.072 E44.65808
G1 X31.203 Y-43.726 E44.67630
G1 X31.274 Y-43.372 E44.69432
G1 X31.300 Y42.605 E48.98373
G1 X31.275 Y43.364 E49.02161
G1 X31.203 Y43.726 E49.04003
G1 X31.086 Y44.072 E49.05825
G1 X30.926 Y44.399 E49.07641
G1 X30.722 Y44.703 E49.09468
G1 X30.479 Y44.979 E49.11302
G1 X30.203 Y45.222 E49.13137
G1 X29.898 Y45.426 E49.14968
G1 X29.572 Y45.586 E49.16779
G1 X29.226 Y45.703 E49.18602
G1 X28.870 Y45.774 E49.20413
G1 X28.062 Y45.800 E49.24446
G1 X-28.076 Y45.800 E52.04519
G1 X-28.864 Y45.775 E52.08453
G1 X-29.226 Y45.703 E52.10294
G1 X-29.572 Y45.586 E52.12116
G1 X-29.899 Y45.426 E52.13933
G1 X-30.203 Y45.222 E52.15759
G1 X-30.479 Y44.979 E52.17594
G1 X-30.722 Y44.703 E52.19428
G1 X-30.926 Y44.399 E52.21255
G1 X-31.086 Y44.072 E52.23071
G1 X-31.203 Y43.726 E52.24893
G1 X-31.274 Y43.370 E52.26704
G1 X-31.300 Y42.583 E52.30633
G0 F9000 X-31.000 Y42.573
G0 X22.610 Y18.306
G0 X22.903 Y18.244
G1 F900 X23.033 Y18.598 E52.32514
G1 X23.209 Y18.930 E52.34389
G1 X23.431 Y19.235 E52.36271
G1 X23.693 Y19.506 E52.38152
G1 X23.990 Y19.738 E52.40032
G1 X24.316 Y19.926 E52.41909
G1 X24.665 Y20.068 E52.43789
G1 X25.030 Y20.159 E52.45666
G1 X25.405 Y20.198 E52.47547
G1 X25.782 Y20.185 E52.49429
G1 X26.153 Y20.119 E52.51309
G1 X26.511 Y20.003 E52.53186
G1 X26.850 Y19.839 E52.55065
G1 X27.163 Y19.628 E52.56948
G1 X27.442 Y19.375 E52.58827
G1 X27.684 Y19.087 E52.60704
G1 X27.884 Y18.767 E52.62587
G1 X28.037 Y18.424 E52.64460
G1 X28.141 Y18.060 E52.66349
G1 X28.193 Y17.688 E52.68223
G1 X28.193 Y17.311 E52.70104
G1 X28.141 Y16.939 E52.71978
G1 X28.037 Y16.575 E52.73867
G1 X27.884 Y16.232 E52.75740
G1 X27.684 Y15.912 E52.77623
G1 X27.442 Y15.624 E52.79500
G1 X27.163 Y15.371 E52.81379
G1 X26.850 Y15.160 E52.83262
G1 X26.511 Y14.996 E52.85141
G1 X26.153 Y14.880 E52.87018
G1 X25.782 Y14.814 E52.88898
G1 X25.405 Y14.801 E52.90780
G1 X25.030 Y14.840 E52.92661
G1 X24.665 Y14.931 E52.94538
G1 X24.316 Y15.073 E52.96418
G1 X23.990 Y15.261 E52.98295
G1 X23.693 Y15.493 E53.00175
G1 X23.431 Y15.764 E53.02056
G1 X23.209 Y16.069 E53.03938
G1 X23.033 Y16.401 E53.05813
G1 X22.903 Y16.755 E53.07694
G1 X22.825 Y17.124 E53.09576
G1 X22.800 Y17.500 E53.11456
G1 X22.825 Y17.875 E53.13331
G1 X22.903 Y18.244 E53.15213
G1 F2400 E49.15213
G0 F9000 X25.030 Y-37.840
G1 F2400 E53.15213
G1 F900 X25.405 Y-37.801 E53.17093
G1 X25.782 Y-37.814 E53.18975
G1 X26.153 Y-37.880 E53.20855
G1 X26.511 Y-37.996 E53.22733
G1 X26.850 Y-38.160 E53.24612
G1 X27.163 Y-38.371 E53.26495
G1 X27.442 Y-38.624 E53.28374
G1 X27.684 Y-38.912 E53.30251
G1 X27.884 Y-39.232 E53.32133
G1 X28.037 Y-39.575 E53.34007
G1 X28.141 Y-39.939 E53.35896
G1 X28.193 Y-40.311 E53.37770
G1 X28.193 Y-40.688 E53.39651
G1 X28.141 Y-41.060 E53.41525
G1 X28.037 Y-41.424 E53.43413
G1 X27.884 Y-41.767 E53.45287
G1 X27.684 Y-42.087 E53.47170
G1 X27.442 Y-42.375 E53.49046
G1 X27.163 Y-42.628 E53.50925
G1 X26.850 Y-42.839 E53.52809
G1 X26.511 Y-43.003 E53.54688
G1 X26.153 Y-43.119 E53.56565
G1 X25.782 Y-43.185 E53.58445
G1 X25.405 Y-43.198 E53.60327
G1 X25.030 Y-43.159 E53.62208
G1 X24.665 Y-43.068 E53.64085
G1 X24.316 Y-42.926 E53.65964
G1 X23.990 Y-42.738 E53.67842
G1 X23.693 Y-42.506 E53.69722
G1 X23.431 Y-42.235 E53.71603
G1 X23.209 Y-41.930 E53.73485
G1 X23.033 Y-41.598 E53.75359
G1 X22.903 Y-41.244 E53.77241
G1 X22.825 Y-40.875 E53.79123
G1 X22.800 Y-40.500 E53.80998
G1 X22.825 Y-40.124 E53.82878
G1 X22.903 Y-39.755 E53.84759
G1 X23.033 Y-39.401 E53.86641
G1 X23.209 Y-39.069 E53.88515
G1 X23.431 Y-38.764 E53.90397
G1 X23.693 Y-38.493 E53.92278
G1 X23.990 Y-38.261 E53.94158
G1 X24.316 Y-38.073 E53.96036
G1 X24.665 Y-37.931 E53.97915
G1 X25.030 Y-37.840 E53.99792
G0 F9000 X24.957 Y-37.549
G0 X-20.562 Y-39.897
G0 X-20.858 Y-39.939
G1 F900 X-20.806 Y-40.311 E54.01666
G1 X-20.806 Y-40.688 E54.03547
G1 X-20.858 Y-41.060 E54.05421
G1 X-20.962 Y-41.424 E54.07310
G1 X-21.115 Y-41.767 E54.09183
G1 X-21.315 Y-42.087 E54.11066
G1 X-21.557 Y-42.375 E54.12943
