;Generated with Cura_SteamEngine 14.09
; Default start code
G28 ; Home extruder
G1 Z15 F10000
M107 ; Turn off fan
G90 ; Absolute positioning
M82 ; Extruder in absolute mode
M190 S45
; Activate all used extruder
M104 T0 S220
G92 E0 ; Reset extruder position
; Wait for all used extruders to reach temperature
M109 T0 S220
;Layer count: 20
;LAYER:0
M107
G0 F9000 X-6.979 Y-1.569 Z0.300
G0 X-7.666 Y-3.199
;TYPE:SKIRT
G1 F900 X-30.586 Y-17.734 E1.35403
G1 X-31.557 Y-18.546 E1.41718
G1 X-31.971 Y-18.891 E1.44407
G1 X-33.132 Y-20.542 E1.54476
G1 X-33.826 Y-22.436 E1.64540
G1 X-33.957 Y-23.909 E1.71918
G1 X-34.007 Y-24.436 E1.74559
G1 X-33.752 Y-25.910 E1.82022
G1 X-33.656 Y-26.442 E1.84719
G1 X-33.036 Y-27.778 E1.92067
G1 X-32.808 Y-28.265 E1.94750
G1 X-31.518 Y-29.811 E2.04795
G1 X-30.306 Y-30.662 E2.12184
G1 X-29.865 Y-30.972 E2.14873
G1 X-27.973 Y-31.665 E2.24925
G1 X-26.515 Y-31.795 E2.32228
G1 X-25.972 Y-31.846 E2.34949
G1 X-23.977 Y-31.499 E2.45052
G1 X-22.631 Y-30.875 E2.52453
G1 X-22.334 Y-30.736 E2.54089
G1 X5.311 Y-13.204 E4.17408
G1 X5.789 Y-12.980 E4.20041
G1 X6.108 Y-12.921 E4.21660
G1 X6.430 Y-12.944 E4.23270
G1 X6.732 Y-13.045 E4.24859
G1 X7.177 Y-13.335 E4.27509
G1 X23.103 Y-26.871 E5.31786
G1 X24.552 Y-27.141 E5.39139
G1 X24.846 Y-27.196 E5.40631
G1 X25.660 Y-27.231 E5.44696
G1 X25.973 Y-27.249 E5.46260
G1 X27.047 Y-27.146 E5.51643
G1 X28.236 Y-26.877 E5.57725
G1 X29.239 Y-26.481 E5.63105
G1 X30.307 Y-25.893 E5.69187
G1 X30.995 Y-25.362 E5.73523
G1 X31.230 Y-25.182 E5.75000
G1 X32.037 Y-24.358 E5.80754
G1 X32.718 Y-23.430 E5.86497
G1 X33.217 Y-22.502 E5.91754
G1 X33.655 Y-21.367 E5.97823
G1 X33.905 Y-20.222 E6.03670
G1 X33.989 Y-19.075 E6.09408
G1 X33.913 Y-17.932 E6.15123
G1 X33.679 Y-16.808 E6.20851
G1 X33.388 Y-16.001 E6.25131
G1 X33.073 Y-15.134 E6.29733
G1 X21.309 Y-5.135 E7.06760
G1 X20.934 Y-4.718 E7.09558
G1 X20.783 Y-4.416 E7.11242
G1 X20.716 Y-4.085 E7.12927
G1 X20.740 Y-3.749 E7.14608
G1 X20.853 Y-3.425 E7.16320
G1 X21.045 Y-3.148 E7.18001
G1 X21.471 Y-2.790 E7.20777
G1 X28.721 Y1.807 E7.63606
G1 X29.980 Y2.407 E7.70564
G1 X31.104 Y3.361 E7.77919
G1 X31.511 Y3.709 E7.80591
G1 X32.653 Y5.355 E7.90585
G1 X33.146 Y6.728 E7.97864
G1 X33.331 Y7.236 E8.00561
G1 X33.503 Y9.237 E8.10581
G1 X33.247 Y10.692 E8.17951
G1 X33.152 Y11.221 E8.20633
G1 X32.310 Y13.033 E8.30601
G1 X31.369 Y14.161 E8.37930
G1 X31.025 Y14.573 E8.40607
G1 X29.387 Y15.731 E8.50615
G1 X27.506 Y16.428 E8.60623
G1 X25.509 Y16.617 E8.70631
G1 X24.053 Y16.374 E8.77995
G1 X23.525 Y16.283 E8.80668
G1 X21.704 Y15.458 E8.90642
G1 X20.631 Y14.578 E8.97566
G1 X8.924 Y7.154 E9.66726
G1 X7.780 Y6.429 E9.73483
G1 X7.291 Y6.201 E9.76175
G1 X6.964 Y6.144 E9.77831
G1 X6.640 Y6.171 E9.79453
G1 X6.327 Y6.284 E9.81113
G1 X5.880 Y6.593 E9.83824
G1 X-20.148 Y30.112 E11.58839
G1 X-21.706 Y31.118 E11.68091
G1 X-23.625 Y31.736 E11.78149
G1 X-25.640 Y31.837 E11.88215
G1 X-27.612 Y31.413 E11.98278
G1 X-29.407 Y30.493 E12.08341
G1 X-30.903 Y29.139 E12.18408
G1 X-31.998 Y27.445 E12.28471
G1 X-32.451 Y26.038 E12.35845
G1 X-32.617 Y25.537 E12.38478
G1 X-32.717 Y23.510 E12.48603
G1 X-32.294 Y21.540 E12.58656
G1 X-31.373 Y19.742 E12.68734
G1 X-30.381 Y18.646 E12.76110
G1 X-30.167 Y18.408 E12.77706
G1 X-7.503 Y-0.856 E14.26104
G1 X-7.128 Y-1.272 E14.28898
G1 X-6.979 Y-1.569 E14.30556
G1 X-6.911 Y-1.906 E14.32271
G1 X-6.935 Y-2.240 E14.33942
G1 X-7.048 Y-2.562 E14.35644
G1 X-7.241 Y-2.841 E14.37337
G1 X-7.666 Y-3.199 E14.40109
G1 F2400 E10.40109
G0 F9000 X-5.415 Y-6.271
;TYPE:WALL-INNER
G1 F2400 E14.40109
G1 F900 X-28.342 Y-20.811 E15.75555
G1 X-29.150 Y-21.486 E15.80808
G1 X-29.737 Y-22.321 E15.85900
G1 X-30.085 Y-23.270 E15.90943
G1 X-30.173 Y-24.249 E15.95847
G1 X-30.177 Y-24.287 E15.96038
G1 X-30.011 Y-25.245 E16.00888
G1 X-30.004 Y-25.284 E16.01086
G1 X-29.591 Y-26.173 E16.05977
G1 X-29.575 Y-26.208 E16.06169
G1 X-28.920 Y-26.992 E16.11265
G1 X-28.089 Y-27.576 E16.16333
G1 X-27.139 Y-27.924 E16.21380
G1 X-26.160 Y-28.012 E16.26284
G1 X-26.123 Y-28.015 E16.26469
G1 X-25.122 Y-27.842 E16.31537
G1 X-24.236 Y-27.430 E16.36412
G1 X3.481 Y-9.866 E18.00120
G1 X4.617 Y-9.333 E18.06380
G1 X5.887 Y-9.096 E18.12825
G1 X7.177 Y-9.187 E18.19277
G1 X8.403 Y-9.597 E18.25727
G1 X9.454 Y-10.282 E18.31985
G1 X24.792 Y-23.320 E19.32418
G1 X25.286 Y-23.412 E19.34925
G1 X25.872 Y-23.437 E19.37851
G1 X25.901 Y-23.439 E19.37996
G1 X26.442 Y-23.387 E19.40707
G1 X27.112 Y-23.235 E19.44135
G1 X27.616 Y-23.036 E19.46838
G1 X28.221 Y-22.703 E19.50284
G1 X28.680 Y-22.348 E19.53179
G1 X29.134 Y-21.891 E19.56393
G1 X29.500 Y-21.392 E19.59480
G1 X29.756 Y-20.917 E19.62172
G1 X30.005 Y-20.270 E19.65631
G1 X30.135 Y-19.674 E19.68674
G1 X30.180 Y-19.067 E19.71711
G1 X30.139 Y-18.444 E19.74826
G1 X30.014 Y-17.849 E19.77859
G1 X29.844 Y-17.377 E19.80362
G1 X18.651 Y-7.863 E20.53651
G1 X17.768 Y-6.881 E20.60240
G1 X17.158 Y-5.664 E20.67031
G1 X16.890 Y-4.330 E20.73820
G1 X16.985 Y-2.972 E20.80611
G1 X17.434 Y-1.687 E20.87402
G1 X18.208 Y-0.567 E20.94194
G1 X19.095 Y0.177 E20.99970
G1 X19.219 Y0.282 E21.00781
G1 X26.882 Y5.141 E21.46050
G1 X27.902 Y5.627 E21.51686
G1 X28.639 Y6.253 E21.56511
G1 X28.669 Y6.279 E21.56709
G1 X29.245 Y7.109 E21.61749
G1 X29.575 Y8.026 E21.66611
G1 X29.588 Y8.061 E21.66798
G1 X29.674 Y9.069 E21.71845
G1 X29.507 Y10.023 E21.76677
G1 X29.500 Y10.062 E21.76874
G1 X29.073 Y10.981 E21.81930
G1 X28.425 Y11.758 E21.86978
G1 X27.602 Y12.339 E21.92004
G1 X26.649 Y12.693 E21.97076
G1 X25.648 Y12.787 E22.02092
G1 X24.687 Y12.627 E22.06952
G1 X24.653 Y12.622 E22.07123
G1 X23.727 Y12.202 E22.12196
G1 X22.976 Y11.586 E22.17042
G1 X22.856 Y11.489 E22.17812
G1 X9.607 Y3.087 E22.96082
G1 X8.443 Y2.546 E23.02486
G1 X7.332 Y2.350 E23.08115
G1 X7.142 Y2.315 E23.09078
G1 X5.821 Y2.428 E23.15693
G1 X4.575 Y2.875 E23.22297
G1 X3.519 Y3.606 E23.28705
G1 X-22.467 Y27.086 E25.03433
G1 X-23.346 Y27.654 E25.08654
G1 X-24.315 Y27.966 E25.13733
G1 X-25.328 Y28.017 E25.18794
G1 X-26.324 Y27.803 E25.23876
G1 X-27.228 Y27.339 E25.28945
G1 X-27.983 Y26.657 E25.34021
G1 X-28.535 Y25.803 E25.39095
G1 X-28.835 Y24.871 E25.43979
G1 X-28.847 Y24.834 E25.44173
G1 X-28.897 Y23.822 E25.49228
G1 X-28.683 Y22.826 E25.54311
G1 X-28.220 Y21.922 E25.59378
G1 X-27.563 Y21.196 E25.64263
G1 X-4.847 Y1.873 E27.13049
G1 X-3.963 Y0.891 E27.19641
G1 X-3.353 Y-0.324 E27.26424
G1 X-3.085 Y-1.659 E27.33217
G1 X-3.180 Y-3.017 E27.40009
G1 X-3.631 Y-4.302 E27.46803
G1 X-4.404 Y-5.421 E27.53588
G1 X-5.415 Y-6.271 E27.60178
G0 F9000 X-24.975 Y-22.807
G1 F900 X-24.679 Y-23.190 E27.62593
G1 X-24.493 Y-23.637 E27.65008
G1 X-24.429 Y-24.109 E27.67385
G1 X-24.475 Y-24.542 E27.69557
G1 X-24.573 Y-24.834 E27.71094
G1 X-24.709 Y-25.150 E27.72810
G1 X-24.889 Y-25.418 E27.74421
G1 X-24.960 Y-25.501 E27.74966
G1 X-25.180 Y-25.713 E27.76490
G1 X-25.500 Y-25.922 E27.78397
G1 X-25.903 Y-26.080 E27.80556
G1 X-26.325 Y-26.146 E27.82687
G1 X-26.783 Y-26.117 E27.84977
G1 X-27.250 Y-25.973 E27.87415
G1 X-27.507 Y-25.823 E27.88900
G1 X-27.746 Y-25.613 E27.90487
G1 X-28.030 Y-25.206 E27.92963
G1 X-28.205 Y-24.751 E27.95395
G1 X-28.266 Y-24.275 E27.97789
G1 X-28.213 Y-23.805 E28.00149
G1 X-28.051 Y-23.369 E28.02469
G1 X-27.796 Y-22.992 E28.04740
G1 X-27.485 Y-22.712 E28.06828
G1 X-27.124 Y-22.472 E28.08991
G1 X-26.732 Y-22.321 E28.11086
G1 X-26.271 Y-22.266 E28.13403
G1 X-25.808 Y-22.328 E28.15733
G1 X-25.357 Y-22.514 E28.18167
G1 X-24.975 Y-22.807 E28.20569
G0 F9000 X-4.406 Y-5.420
G0 X-3.183 Y-3.017
G0 X-3.354 Y-0.325
G0 X-4.848 Y1.872
G0 X-25.513 Y22.142
G1 F900 X-25.980 Y22.286 E28.23007
G1 X-26.237 Y22.436 E28.24492
G1 X-26.476 Y22.646 E28.26079
G1 X-26.760 Y23.053 E28.28555
G1 X-26.935 Y23.508 E28.30987
G1 X-26.996 Y23.984 E28.33381
G1 X-26.943 Y24.454 E28.35741
G1 X-26.781 Y24.890 E28.38061
G1 X-26.526 Y25.267 E28.40332
G1 X-26.215 Y25.547 E28.42420
G1 X-25.854 Y25.787 E28.44583
G1 X-25.462 Y25.938 E28.46678
G1 X-25.001 Y25.993 E28.48995
G1 X-24.538 Y25.931 E28.51325
G1 X-24.087 Y25.745 E28.53759
G1 X-23.705 Y25.452 E28.56161
G1 X-23.409 Y25.069 E28.58576
G1 X-23.223 Y24.622 E28.60991
G1 X-23.159 Y24.150 E28.63368
G1 X-23.205 Y23.717 E28.65540
G1 X-23.303 Y23.425 E28.67077
G1 X-23.439 Y23.109 E28.68793
G1 X-23.619 Y22.841 E28.70404
G1 X-23.690 Y22.758 E28.70949
G1 X-23.910 Y22.546 E28.72473
G1 X-24.230 Y22.337 E28.74380
G1 X-24.633 Y22.179 E28.76539
G1 X-25.055 Y22.113 E28.78670
G1 X-25.513 Y22.142 E28.80960
G0 F9000 X4.577 Y2.877
G0 X7.141 Y2.318
G0 X9.606 Y3.088
G0 X23.856 Y9.214
G1 F900 X24.018 Y9.650 E28.83280
G1 X24.273 Y10.027 E28.85551
G1 X24.584 Y10.307 E28.87639
G1 X24.945 Y10.547 E28.89802
G1 X25.337 Y10.698 E28.91897
G1 X25.798 Y10.753 E28.94214
G1 X26.261 Y10.691 E28.96544
G1 X26.712 Y10.505 E28.98978
G1 X27.094 Y10.212 E29.01380
G1 X27.390 Y9.829 E29.03795
G1 X27.576 Y9.382 E29.06210
G1 X27.640 Y8.910 E29.08587
G1 X27.594 Y8.477 E29.10759
G1 X27.496 Y8.185 E29.12296
G1 X27.360 Y7.869 E29.14012
G1 X27.180 Y7.601 E29.15623
G1 X27.109 Y7.518 E29.16168
G1 X26.889 Y7.306 E29.17692
G1 X26.569 Y7.097 E29.19599
G1 X26.166 Y6.939 E29.21758
G1 X25.744 Y6.873 E29.23889
G1 X25.286 Y6.902 E29.26179
G1 X24.819 Y7.046 E29.28617
G1 X24.562 Y7.196 E29.30101
G1 X24.323 Y7.406 E29.31689
G1 X24.039 Y7.813 E29.34165
G1 X23.864 Y8.268 E29.36597
G1 X23.803 Y8.744 E29.38991
G1 X23.856 Y9.214 E29.41351
G0 F9000 X17.436 Y-1.689
G0 X16.892 Y-4.329
G0 X17.770 Y-6.879
G0 X25.337 Y-17.241
G1 F900 X25.798 Y-17.186 E29.43667
G1 X26.261 Y-17.248 E29.45998
G1 X26.712 Y-17.434 E29.48431
G1 X27.094 Y-17.727 E29.50833
G1 X27.390 Y-18.110 E29.53248
G1 X27.576 Y-18.557 E29.55664
G1 X27.640 Y-19.029 E29.58040
G1 X27.594 Y-19.462 E29.60212
G1 X27.496 Y-19.754 E29.61749
G1 X27.360 Y-20.070 E29.63465
G1 X27.180 Y-20.338 E29.65076
G1 X27.109 Y-20.421 E29.65621
G1 X26.889 Y-20.633 E29.67145
G1 X26.569 Y-20.842 E29.69052
G1 X26.166 Y-21.000 E29.71212
G1 X25.744 Y-21.066 E29.73343
G1 X25.286 Y-21.037 E29.75632
G1 X24.819 Y-20.893 E29.78070
G1 X24.562 Y-20.743 E29.79555
G1 X24.323 Y-20.533 E29.81142
G1 X24.039 Y-20.126 E29.83618
G1 X23.864 Y-19.671 E29.86050
G1 X23.803 Y-19.195 E29.88444
G1 X23.856 Y-18.725 E29.90804
G1 X24.018 Y-18.289 E29.93125
G1 X24.273 Y-17.912 E29.95395
G1 X24.584 Y-17.632 E29.97483
G1 X24.945 Y-17.392 E29.99646
G1 X25.337 Y-17.241 E30.01742
G0 F9000 X24.577 Y-18.177
;TYPE:WALL-OUTER
G1 F900 X24.830 Y-17.949 E30.03441
G1 X25.130 Y-17.749 E30.05240
G1 X25.434 Y-17.632 E30.06865
G1 X25.789 Y-17.590 E30.08648
G1 X26.158 Y-17.638 E30.10505
G1 X26.510 Y-17.783 E30.12404
G1 X26.809 Y-18.013 E30.14286
G1 X27.041 Y-18.313 E30.16178
G1 X27.187 Y-18.662 E30.18065
G1 X27.237 Y-19.034 E30.19938
G1 X27.201 Y-19.376 E30.21654
G1 X27.007 Y-19.878 E30.24339
G1 X26.818 Y-20.146 E30.25975
G1 X26.639 Y-20.318 E30.27213
G1 X26.379 Y-20.488 E30.28763
G1 X26.065 Y-20.611 E30.30446
G1 X25.725 Y-20.664 E30.32162
G1 X25.359 Y-20.641 E30.33992
G1 X24.981 Y-20.524 E30.35966
G1 X24.797 Y-20.417 E30.37028
G1 X24.624 Y-20.264 E30.38180
G1 X24.395 Y-19.937 E30.40172
G1 X24.255 Y-19.572 E30.42122
G1 X24.206 Y-19.192 E30.44034
G1 X24.248 Y-18.818 E30.45911
G1 X24.376 Y-18.474 E30.47742
G1 X24.577 Y-18.177 E30.49532
G0 F9000 X24.375 Y-17.955
G0 X25.337 Y-17.243
G0 X26.711 Y-17.436
G0 X29.945 Y-17.330
G0 X30.185 Y-17.141
G1 F900 X18.930 Y-7.576 E31.23221
G1 X18.101 Y-6.654 E31.29407
G1 X17.539 Y-5.533 E31.35663
G1 X17.293 Y-4.304 E31.41916
G1 X17.380 Y-3.053 E31.48173
G1 X17.794 Y-1.870 E31.54426
G1 X18.507 Y-0.839 E31.60680
G1 X19.354 Y-0.128 E31.66197
G1 X19.456 Y-0.041 E31.66866
G1 X27.076 Y4.790 E32.11878
G1 X28.122 Y5.288 E32.17658
G1 X28.968 Y6.007 E32.23197
G1 X29.605 Y6.925 E32.28772
G1 X29.982 Y7.976 E32.34342
G1 X30.078 Y9.085 E32.39896
G1 X29.900 Y10.094 E32.45008
G1 X29.883 Y10.188 E32.45484
G1 X29.415 Y11.195 E32.51024
G1 X28.697 Y12.056 E32.56617
G1 X27.792 Y12.696 E32.62147
G1 X26.739 Y13.086 E32.67750
G1 X25.631 Y13.191 E32.73302
G1 X24.622 Y13.022 E32.78406
G1 X24.532 Y13.006 E32.78862
G1 X23.516 Y12.546 E32.84426
G1 X22.622 Y11.815 E32.90188
G1 X9.415 Y3.439 E33.68212
G1 X8.322 Y2.931 E33.74225
G1 X7.264 Y2.744 E33.79585
G1 X7.123 Y2.718 E33.80300
G1 X5.907 Y2.822 E33.86389
G1 X4.760 Y3.234 E33.92470
G1 X3.768 Y3.920 E33.98487
G1 X-22.223 Y27.405 E35.73250
G1 X-23.175 Y28.019 E35.78902
G1 X-24.240 Y28.362 E35.84484
G1 X-25.362 Y28.419 E35.90089
G1 X-26.461 Y28.182 E35.95698
G1 X-27.459 Y27.671 E36.01292
G1 X-28.289 Y26.920 E36.06876
G1 X-28.900 Y25.974 E36.12495
G1 X-29.215 Y24.995 E36.17626
G1 X-29.243 Y24.909 E36.18077
G1 X-29.299 Y23.788 E36.23676
G1 X-29.063 Y22.689 E36.29284
G1 X-28.552 Y21.691 E36.34878
G1 X-27.793 Y20.852 E36.40523
G1 X-5.126 Y1.586 E37.88938
G1 X-4.296 Y0.664 E37.95127
G1 X-3.734 Y-0.455 E38.01375
G1 X-3.488 Y-1.685 E38.07633
G1 X-3.575 Y-2.936 E38.13889
G1 X-3.990 Y-4.119 E38.20144
G1 X-4.703 Y-5.150 E38.26398
G1 X-5.652 Y-5.948 E38.32584
G1 X-28.580 Y-20.488 E39.68034
G1 X-29.446 Y-21.211 E39.73662
G1 X-30.093 Y-22.132 E39.79277
G1 X-30.479 Y-23.187 E39.84882
G1 X-30.580 Y-24.302 E39.90468
G1 X-30.404 Y-25.316 E39.95602
G1 X-30.387 Y-25.410 E39.96079
G1 X-29.916 Y-26.424 E40.01657
G1 X-29.195 Y-27.287 E40.07267
G1 X-28.277 Y-27.932 E40.12865
G1 X-27.222 Y-28.318 E40.18469
G1 X-26.107 Y-28.419 E40.24055
G1 X-25.000 Y-28.226 E40.29661
G1 X-23.974 Y-27.750 E40.35304
G1 X3.674 Y-10.217 E41.98637
G1 X4.740 Y-9.717 E42.04512
G1 X5.910 Y-9.499 E42.10449
G1 X7.098 Y-9.582 E42.16391
G1 X8.228 Y-9.960 E42.22335
G1 X9.214 Y-10.603 E42.28208
G1 X24.613 Y-23.693 E43.29040
G1 X25.237 Y-23.810 E43.32208
G1 X25.852 Y-23.836 E43.35279
G1 X25.911 Y-23.839 E43.35573
G1 X26.507 Y-23.782 E43.38560
G1 X27.230 Y-23.618 E43.42259
G1 X27.790 Y-23.397 E43.45263
G1 X28.438 Y-23.041 E43.48951
G1 X28.966 Y-22.634 E43.52277
G1 X29.442 Y-22.149 E43.55668
G1 X29.835 Y-21.612 E43.58987
G1 X30.120 Y-21.082 E43.61990
G1 X30.390 Y-20.383 E43.65728
G1 X30.532 Y-19.732 E43.69052
G1 X30.581 Y-19.069 E43.72369
G1 X30.536 Y-18.392 E43.75754
G1 X30.398 Y-17.733 E43.79113
G1 X30.185 Y-17.141 E43.82252
G0 F9000 X29.945 Y-17.330
G0 X17.770 Y-6.879
G0 X16.892 Y-4.329
G0 X17.436 Y-1.689
G0 X19.219 Y0.281
G0 X26.167 Y7.047
G0 X26.065 Y7.328
G1 F900 X25.725 Y7.275 E43.83969
G1 X25.359 Y7.298 E43.85798
G1 X24.981 Y7.415 E43.87772
G1 X24.797 Y7.522 E43.88834
G1 X24.624 Y7.675 E43.89987
G1 X24.395 Y8.002 E43.91978
G1 X24.255 Y8.367 E43.93929
G1 X24.206 Y8.747 E43.95840
G1 X24.248 Y9.121 E43.97718
G1 X24.376 Y9.465 E43.99549
G1 X24.577 Y9.762 E44.01338
G1 X24.830 Y9.990 E44.03037
G1 X25.130 Y10.190 E44.04836
G1 X25.434 Y10.307 E44.06461
G1 X25.789 Y10.349 E44.08245
G1 X26.158 Y10.301 E44.10101
G1 X26.510 Y10.156 E44.12000
G1 X26.809 Y9.926 E44.13882
G1 X27.041 Y9.626 E44.15774
G1 X27.187 Y9.277 E44.17662
G1 X27.237 Y8.905 E44.19534
G1 X27.201 Y8.563 E44.21250
G1 X27.007 Y8.061 E44.23935
G1 X26.818 Y7.793 E44.25571
G1 X26.639 Y7.621 E44.26810
G1 X26.379 Y7.451 E44.28360
G1 X26.065 Y7.328 E44.30042
G0 F9000 X26.167 Y7.047
G0 X24.820 Y7.047
G0 X7.141 Y2.318
G0 X4.577 Y2.877
G0 X-23.314 Y23.710
G0 X-23.598 Y23.803
G1 F900 X-23.792 Y23.301 E44.32727
G1 X-23.981 Y23.033 E44.34363
G1 X-24.160 Y22.861 E44.35602
G1 X-24.420 Y22.691 E44.37151
G1 X-24.734 Y22.568 E44.38834
G1 X-25.074 Y22.515 E44.40551
G1 X-25.440 Y22.538 E44.42380
G1 X-25.818 Y22.655 E44.44354
G1 X-26.002 Y22.762 E44.45416
G1 X-26.175 Y22.915 E44.46568
G1 X-26.404 Y23.242 E44.48560
G1 X-26.544 Y23.607 E44.50510
G1 X-26.593 Y23.987 E44.52422
G1 X-26.551 Y24.361 E44.54300
G1 X-26.423 Y24.705 E44.56131
G1 X-26.222 Y25.002 E44.57920
G1 X-25.969 Y25.230 E44.59619
G1 X-25.669 Y25.430 E44.61418
